src/lib/packages/icons/src/assets/line/sim-card-2.svg

<svg width="24" height="24" viewBox="0 0 24 24" fill="none" xmlns="http://www.w3.org/2000/svg">
<path d="M19.0911 7.03003L14.97 2.90894C14.551 2.48994 13.9709 2.25 13.3789 2.25H8C5.582 2.25 4.25 3.582 4.25 6V18C4.25 20.418 5.582 21.75 8 21.75H16C18.418 21.75 19.75 20.418 19.75 18V8.62109C19.75 8.02909 19.5101 7.44903 19.0911 7.03003ZM18.25 18C18.25 19.577 17.577 20.25 16 20.25H8C6.423 20.25 5.75 19.577 5.75 18V6C5.75 4.423 6.423 3.75 8 3.75H13.3789C13.5759 3.75 13.7699 3.82997 13.9089 3.96997L18.03 8.09106C18.17 8.23106 18.25 8.42409 18.25 8.62109V18ZM14.8931 16C14.8931 16.414 14.5571 16.75 14.1431 16.75H10.4431C10.1411 16.75 9.86993 16.569 9.75293 16.292C9.63493 16.014 9.69503 15.6931 9.90503 15.4771C9.90503 15.4771 10.9901 14.3621 12.5901 12.7571C13.1571 12.1881 13.2919 11.4961 12.9109 11.1111C12.5489 10.7461 12.164 10.7191 11.907 10.7661C11.558 10.8251 11.2571 11.0399 11.1211 11.3279C10.9431 11.7009 10.5011 11.8621 10.1211 11.6831C9.74709 11.5051 9.58811 11.0581 9.76611 10.6831C10.1151 9.95111 10.821 9.42911 11.656 9.28711C12.508 9.14211 13.3501 9.42293 13.9761 10.0549C14.9511 11.0379 14.8121 12.6549 13.6531 13.8169C13.1121 14.3589 12.631 14.845 12.231 15.251H14.144C14.557 15.25 14.8931 15.586 14.8931 16Z" fill="currentColor"/>
</svg>

<svg xmlns="http://www.w3.org/2000/svg" width="24" height="24" fill="none"><path fill="currentColor" d="M19.091 7.03 14.97 2.909c-.419-.42-1-.659-1.591-.659H8C5.582 2.25 4.25 3.582 4.25 6v12c0 2.418 1.332 3.75 3.75 3.75h8c2.418 0 3.75-1.332 3.75-3.75V8.621c0-.592-.24-1.172-.659-1.591ZM18.25 18c0 1.577-.673 2.25-2.25 2.25H8c-1.577 0-2.25-.673-2.25-2.25V6c0-1.577.673-2.25 2.25-2.25h5.379c.197 0 .39.08.53.22l4.121 4.121c.14.14.22.333.22.53V18Zm-3.357-2a.75.75 0 0 1-.75.75h-3.7a.749.749 0 0 1-.538-1.273s1.085-1.115 2.685-2.72c.567-.569.702-1.26.32-1.646-.361-.365-.746-.392-1.003-.345-.349.06-.65.274-.786.562a.75.75 0 1 1-1.355-.645c.35-.732 1.055-1.254 1.89-1.396.852-.145 1.694.136 2.32.768.975.983.836 2.6-.323 3.762-.54.542-1.022 1.028-1.422 1.434h1.913a.749.749 0 0 1 .75.749Z"/></svg>
